libs/ui/packages/crypto-icons/src/svg/IOTX.svg

<svg width="24" height="24" viewBox="0 0 24 24" fill="none">
<path d="M13.8915 3.49573V7.58848L17.445 5.54473L13.8915 3.49573Z" fill="#00D4D5"/>
<path opacity="0.9" d="M17.445 5.54468V9.63743L20.9978 7.58843L17.445 5.54468Z" fill="#00D4D5"/>
<path opacity="0.8" d="M13.8915 7.5885V11.6813L17.445 9.6375L13.8915 7.5885ZM17.445 9.63825V13.7303L20.9977 11.6813L17.445 9.63825Z" fill="#00D4D5"/>
<path opacity="0.8" d="M13.8915 11.6813V15.774L17.445 13.7303L13.8915 11.6813Z" fill="#00D4D5"/>
<path d="M17.445 13.7302V17.823L20.9978 15.774L17.445 13.7302Z" fill="#00D4D5"/>
<path opacity="0.4" d="M4.70703 7.45044V11.5432L8.26053 9.49419L4.70703 7.45044Z" fill="#00D4D5"/>
<path opacity="0.2" d="M9.18976 8.97217V13.0649L12.7373 11.0212L9.18976 8.97217Z" fill="#00D4D5"/>
<path opacity="0.3" d="M6.55573 11.5604V15.6532L10.1085 13.6042L6.55573 11.5604Z" fill="#00D4D5"/>
<path opacity="0.9" d="M8.89722 14.6489V18.7417L12.4447 16.6927L8.89722 14.6489Z" fill="#00D4D5"/>
<path opacity="0.7" d="M13.8622 16.4108V20.5043L17.4097 18.4545L13.8622 16.4108Z" fill="#00D4D5"/>
<path opacity="0.9" d="M9.78149 6.95093V11.0444L13.329 9.00068L9.78149 6.95093Z" fill="#00D4D5"/>
<path opacity="0.8" d="M13.8915 3.49573V7.58848L10.338 5.54473L13.8915 3.49573Z" fill="#00D4D5"/>
<path opacity="0.6" d="M9.78148 5.23572V9.32772L6.22723 7.27872L9.78148 5.23572Z" fill="#00D4D5"/>
<path opacity="0.6" d="M13.335 7.26074V11.3542L9.78149 9.30449L13.335 7.26074Z" fill="#00D4D5"/>
<path opacity="0.95" d="M9.17325 8.97217V13.0649L5.61975 11.0212L9.17325 8.97217Z" fill="#00D4D5"/>
<path opacity="0.6" d="M13.8915 11.6813V15.774L10.344 13.7303L13.8915 11.6813Z" fill="#00D4D5"/>
<path opacity="0.55" d="M6.55576 12.6345V16.7273L3.00226 14.6775L6.55576 12.6345Z" fill="#00D4D5"/>
<path d="M20.9978 7.5885V11.6813L17.445 9.6375L20.9978 7.5885Z" fill="#00D4D5"/>
<path opacity="0.95" d="M17.445 9.63818V13.7302L13.8915 11.6812L17.445 9.63818Z" fill="#00D4D5"/>
<path opacity="0.9" d="M20.9978 11.6813V15.774L17.445 13.7303L20.9978 11.6813Z" fill="#00D4D5"/>
<path opacity="0.7" d="M17.445 13.7302V17.823L13.8915 15.774L17.445 13.7302Z" fill="#00D4D5"/>
<path opacity="0.4" d="M13.1048 15.4358V19.5285L9.55206 17.4848L13.1048 15.4358Z" fill="#00D4D5"/>
<path d="M17.445 5.54468V9.63743L13.8915 7.58843L17.445 5.54468Z" fill="#00D4D5"/>
</svg>

<svg width="24" height="24" viewBox="0 0 24 24" fill="none"><path fill="#00d4d5" d="M13.892 3.496v4.092l3.553-2.043z"/><path fill="#00d4d5" d="M17.445 5.545v4.092l3.553-2.049z" opacity=".9"/><path fill="#00d4d5" d="M13.892 7.589v4.092l3.553-2.043zm3.553 2.05v4.091l3.553-2.049z" opacity=".8"/><path fill="#00d4d5" d="M13.892 11.681v4.093l3.553-2.044z" opacity=".8"/><path fill="#00d4d5" d="M17.445 13.73v4.093l3.553-2.049z"/><path fill="#00d4d5" d="M4.707 7.45v4.093l3.554-2.049z" opacity=".4"/><path fill="#00d4d5" d="M9.19 8.972v4.093l3.547-2.044z" opacity=".2"/><path fill="#00d4d5" d="M6.556 11.56v4.093l3.552-2.049z" opacity=".3"/><path fill="#00d4d5" d="M8.897 14.649v4.093l3.548-2.05z" opacity=".9"/><path fill="#00d4d5" d="M13.862 16.41v4.094l3.548-2.05z" opacity=".7"/><path fill="#00d4d5" d="M9.781 6.95v4.094l3.548-2.043z" opacity=".9"/><path fill="#00d4d5" d="M13.892 3.496v4.092l-3.554-2.043z" opacity=".8"/><path fill="#00d4d5" d="M9.781 5.236v4.092l-3.554-2.05zm3.554 2.024v4.094l-3.554-2.05z" opacity=".6"/><path fill="#00d4d5" d="M9.173 8.972v4.093L5.62 11.02z" opacity=".95"/><path fill="#00d4d5" d="M13.892 11.681v4.093l-3.548-2.044z" opacity=".6"/><path fill="#00d4d5" d="M6.556 12.635v4.092l-3.554-2.05z" opacity=".55"/><path fill="#00d4d5" d="M20.998 7.589v4.092l-3.553-2.043z"/><path fill="#00d4d5" d="M17.445 9.638v4.092l-3.553-2.049z" opacity=".95"/><path fill="#00d4d5" d="M20.998 11.681v4.093l-3.553-2.044z" opacity=".9"/><path fill="#00d4d5" d="M17.445 13.73v4.093l-3.553-2.049z" opacity=".7"/><path fill="#00d4d5" d="M13.105 15.436v4.093l-3.553-2.044z" opacity=".4"/><path fill="#00d4d5" d="M17.445 5.545v4.092l-3.553-2.049z"/></svg>
